images/heart.svg

<svg width="50" height="50" viewBox="0 0 50 50" fill="none" xmlns="http://www.w3.org/2000/svg">
<rect width="50" height="50" fill="#404040"/>
<rect width="1920" height="1715" transform="translate(-1569 -50)" fill="#FFD845"/>
<path fill-rule="evenodd" clip-rule="evenodd" d="M15.041 12.5C13.241 12.5 11.5535 13.1958 10.291 14.4604C7.6702 17.0854 7.6702 21.3583 10.2931 23.9875L24.9994 38.7187L39.7077 23.9875C42.3306 21.3583 42.3306 17.0854 39.7077 14.4604C37.1827 11.9292 32.7327 11.9333 30.2077 14.4604L26.4744 18.2C25.691 18.9854 24.3077 18.9854 23.5244 18.2L19.791 14.4583C18.5285 13.1958 16.8431 12.5 15.041 12.5M24.9994 43.75V43.75C24.4473 43.75 23.916 43.5312 23.5264 43.1375L7.34312 26.9292C3.10145 22.6792 3.10145 15.7646 7.34312 11.5146C9.39311 9.46458 12.1264 8.33333 15.041 8.33333C17.9556 8.33333 20.691 9.46458 22.7389 11.5146L24.9994 13.7792L27.2598 11.5167C29.3098 9.46458 32.0431 8.33333 34.9598 8.33333C37.8723 8.33333 40.6077 9.46458 42.6556 11.5146C46.8994 15.7646 46.8994 22.6792 42.6577 26.9292L26.4744 43.1396C26.0827 43.5312 25.5535 43.75 24.9994 43.75" fill="black"/>
<mask id="mask0_0_1" style="mask-type:alpha" maskUnits="userSpaceOnUse" x="4" y="8" width="42" height="36">
<path fill-rule="evenodd" clip-rule="evenodd" d="M15.041 12.5C13.241 12.5 11.5535 13.1958 10.291 14.4604C7.6702 17.0854 7.6702 21.3583 10.2931 23.9875L24.9994 38.7187L39.7077 23.9875C42.3306 21.3583 42.3306 17.0854 39.7077 14.4604C37.1827 11.9292 32.7327 11.9333 30.2077 14.4604L26.4744 18.2C25.691 18.9854 24.3077 18.9854 23.5244 18.2L19.791 14.4583C18.5285 13.1958 16.8431 12.5 15.041 12.5M24.9994 43.75V43.75C24.4473 43.75 23.916 43.5312 23.5264 43.1375L7.34312 26.9292C3.10145 22.6792 3.10145 15.7646 7.34312 11.5146C9.39312 9.46458 12.1264 8.33333 15.041 8.33333C17.9556 8.33333 20.691 9.46458 22.7389 11.5146L24.9994 13.7792L27.2598 11.5167C29.3098 9.46458 32.0431 8.33333 34.9598 8.33333C37.8723 8.33333 40.6077 9.46458 42.6556 11.5146C46.8994 15.7646 46.8994 22.6792 42.6577 26.9292L26.4744 43.1396C26.0827 43.5312 25.5535 43.75 24.9994 43.75" fill="white"/>
</mask>
<g mask="url(#mask0_0_1)">
<rect width="50" height="50" fill="black"/>
</g>
</svg>

<svg width="50" height="50" fill="none" xmlns="http://www.w3.org/2000/svg"><path fill="#404040" d="M0 0h50v50H0z"/><path fill="#FFD845" d="M-1569-50H351v1715h-1920z"/><path fill-rule="evenodd" clip-rule="evenodd" d="M15.041 12.5c-1.8 0-3.488.696-4.75 1.96-2.62 2.625-2.62 6.898.002 9.527L25 38.72l14.709-14.732c2.623-2.629 2.623-6.902 0-9.527-2.525-2.53-6.975-2.527-9.5 0l-3.734 3.74c-.783.785-2.166.785-2.95 0l-3.733-3.742a6.667 6.667 0 0 0-4.75-1.958m9.958 31.25a2.072 2.072 0 0 1-1.473-.612L7.343 26.929c-4.242-4.25-4.242-11.164 0-15.414a10.812 10.812 0 0 1 7.698-3.182c2.915 0 5.65 1.132 7.698 3.182l2.26 2.264 2.26-2.262a10.806 10.806 0 0 1 7.7-3.184c2.913 0 5.649 1.132 7.697 3.182 4.243 4.25 4.243 11.164.002 15.414L26.474 43.14c-.391.392-.92.611-1.475.611" fill="#000"/><mask id="a" style="mask-type:alpha" maskUnits="userSpaceOnUse" x="4" y="8" width="42" height="36"><path fill-rule="evenodd" clip-rule="evenodd" d="M15.041 12.5c-1.8 0-3.488.696-4.75 1.96-2.62 2.625-2.62 6.898.002 9.527L25 38.72l14.709-14.732c2.623-2.629 2.623-6.902 0-9.527-2.525-2.53-6.975-2.527-9.5 0l-3.734 3.74c-.783.785-2.166.785-2.95 0l-3.733-3.742a6.667 6.667 0 0 0-4.75-1.958m9.958 31.25a2.072 2.072 0 0 1-1.473-.612L7.343 26.929c-4.242-4.25-4.242-11.164 0-15.414a10.812 10.812 0 0 1 7.698-3.182c2.915 0 5.65 1.132 7.698 3.182l2.26 2.264 2.26-2.262a10.806 10.806 0 0 1 7.7-3.184c2.913 0 5.649 1.132 7.697 3.182 4.243 4.25 4.243 11.164.002 15.414L26.474 43.14c-.391.392-.92.611-1.475.611" fill="#fff"/></mask><g mask="url(#a)"><path fill="#000" d="M0 0h50v50H0z"/></g></svg>
